static/fa/svgs/regular/calendar-xmark.svg

<svg xmlns="http://www.w3.org/2000/svg" viewBox="0 0 448 512"><!--! Font Awesome Free 6.1.1 by @fontawesome - https://fontawesome.com License - https://fontawesome.com/license/free (Icons: CC BY 4.0, Fonts: SIL OFL 1.1, Code: MIT License) Copyright 2022 Fonticons, Inc.--><path d="m257.9 328 46.2 47c10.2 9.4 10.2 24.6 0 33.1-8.5 10.2-23.7 10.2-33.1 0l-47-46.2-47.9 46.2c-8.5 10.2-23.7 10.2-33.1 0-9.3-8.5-9.3-23.7 0-33.1l47.1-47-47.1-47.9c-9.3-8.5-9.3-23.7 0-33.1 9.4-9.3 24.6-9.3 33.1 0l47.9 47.1 47-47.1c9.4-9.3 24.6-9.3 33.1 0 10.2 9.4 10.2 24.6 0 33.1L257.9 328zM128 0c13.3 0 24 10.75 24 24v40h144V24c0-13.25 10.7-24 24-24s24 10.75 24 24v40h40c35.3 0 64 28.65 64 64v320c0 35.3-28.7 64-64 64H64c-35.35 0-64-28.7-64-64V128c0-35.35 28.65-64 64-64h40V24c0-13.25 10.7-24 24-24zm272 192H48v256c0 8.8 7.16 16 16 16h320c8.8 0 16-7.2 16-16V192z"/></svg>

<svg xmlns="http://www.w3.org/2000/svg" viewBox="0 0 448 512"><!--! Font Awesome Free 6.1.1 by @fontawesome - https://fontawesome.com License - https://fontawesome.com/license/free (Icons: CC BY 4.0, Fonts: SIL OFL 1.1, Code: MIT License) Copyright 2022 Fonticons, Inc. --><path d="M257.9 328L304.1 375C314.3 384.4 314.3 399.6 304.1 408.1C295.6 418.3 280.4 418.3 271 408.1L224 361.9L176.1 408.1C167.6 418.3 152.4 418.3 143 408.1C133.7 399.6 133.7 384.4 143 375L190.1 328L143 280.1C133.7 271.6 133.7 256.4 143 247C152.4 237.7 167.6 237.7 176.1 247L224 294.1L271 247C280.4 237.7 295.6 237.7 304.1 247C314.3 256.4 314.3 271.6 304.1 280.1L257.9 328zM128 0C141.3 0 152 10.75 152 24V64H296V24C296 10.75 306.7 0 320 0C333.3 0 344 10.75 344 24V64H384C419.3 64 448 92.65 448 128V448C448 483.3 419.3 512 384 512H64C28.65 512 0 483.3 0 448V128C0 92.65 28.65 64 64 64H104V24C104 10.75 114.7 0 128 0zM400 192H48V448C48 456.8 55.16 464 64 464H384C392.8 464 400 456.8 400 448V192z"/></svg>
